styles/1/Numix/22/places/grey-folder-cloud.svg

<?xml version="1.0" encoding="UTF-8" standalone="no"?>
<!-- Created with Inkscape (http://www.inkscape.org/) -->

<svg
   xmlns:dc="http://purl.org/dc/elements/1.1/"
   xmlns:cc="http://creativecommons.org/ns#"
   xmlns:rdf="http://www.w3.org/1999/02/22-rdf-syntax-ns#"
   xmlns:svg="http://www.w3.org/2000/svg"
   xmlns="http://www.w3.org/2000/svg"
   xmlns:sodipodi="http://sodipodi.sourceforge.net/DTD/sodipodi-0.dtd"
   xmlns:inkscape="http://www.inkscape.org/namespaces/inkscape"
   width="22"
   height="22"
   id="svg2"
   version="1.1"
   inkscape:version="0.91 r"
   sodipodi:docname="grey-folder-cloud.svg"
   inkscape:export-filename="/media/Data/Main/Visuals/Icons/Numix/Desktop/repos/numix-wiki/Gjorgi/Numix-folders/48/New/folder-144.png"
   inkscape:export-xdpi="270"
   inkscape:export-ydpi="270">
  <defs
     id="defs4" />
  <sodipodi:namedview
     id="base"
     pagecolor="#ffffff"
     bordercolor="#666666"
     borderopacity="1.0"
     inkscape:pageopacity="0.0"
     inkscape:pageshadow="2"
     inkscape:zoom="12.535171"
     inkscape:cx="0.19745022"
     inkscape:cy="15.18954"
     inkscape:document-units="px"
     inkscape:current-layer="layer1"
     showgrid="true"
     inkscape:window-width="1280"
     inkscape:window-height="998"
     inkscape:window-x="0"
     inkscape:window-y="0"
     inkscape:window-maximized="1"
     showguides="true"
     inkscape:guide-bbox="true">
    <inkscape:grid
       type="xygrid"
       id="grid2985"
       empspacing="5"
       visible="true"
       enabled="true"
       snapvisiblegridlinesonly="true" />
  </sodipodi:namedview>
  <metadata
     id="metadata7">
    <rdf:RDF>
      <cc:Work
         rdf:about="">
        <dc:format>image/svg+xml</dc:format>
        <dc:type
           rdf:resource="http://purl.org/dc/dcmitype/StillImage" />
        <dc:title />
      </cc:Work>
    </rdf:RDF>
  </metadata>
  <g
     inkscape:label="Layer 1"
     inkscape:groupmode="layer"
     id="layer1"
     transform="translate(0,-1030.3622)">
    <path
       style="font-size:medium;font-style:normal;font-variant:normal;font-weight:normal;font-stretch:normal;text-indent:0;text-align:start;text-decoration:none;line-height:normal;letter-spacing:normal;word-spacing:normal;text-transform:none;direction:ltr;block-progression:tb;writing-mode:lr-tb;text-anchor:start;baseline-shift:baseline;color:#000000;fill:#bdbdbd;fill-opacity:1;fill-rule:nonzero;stroke:none;stroke-width:1.52408636;marker:none;visibility:visible;display:inline;overflow:visible;enable-background:accumulate;font-family:Sans;-inkscape-font-specification:Sans"
       d="M 1.625 3 C 1.2775698 3.063 0.99985296 3.3968 1 3.75 L 1 18.25 C 1.00617 18.641 1.3590206 18.9938 1.75 19 L 20.25 19 C 20.640979 18.99 20.99383 18.641 21 18.25 L 21 5.8125 C 20.9938 5.4215 20.640979 5.0062 20.25 5 L 13 5 L 13 3.75 C 12.9938 3.359 12.640979 3.0062 12.25 3 L 1.625 3 z M 9.5 8 A 3 2.7999837 0 0 1 9.71875 8 A 3 2.7999837 0 0 1 12.0625 9.0625 A 2.1428571 1.9999983 0 0 1 13.15625 8.8125 A 2.1428571 1.9999983 0 0 1 15.28125 10.8125 A 2.1428571 1.9999983 0 0 1 14.84375 12 L 15.28125 12 L 15.28125 12.03125 A 2.1428571 1.9999983 0 0 1 17 14 A 2.1428571 1.9999983 0 0 1 15.28125 15.96875 L 15.28125 16 L 7.28125 16 L 6.9375 16 L 6.71875 16 L 6.71875 15.96875 A 2.1428571 2.0000234 0 0 1 5 14 A 2.1428571 2.0000234 0 0 1 6.71875 12.03125 L 6.71875 12 L 7 12 A 3 2.7999837 0 0 1 6.71875 10.8125 A 3 2.7999837 0 0 1 9.5 8 z "
       transform="translate(0,1030.3622)"
       id="path3912" />
  </g>
</svg>

<!-- Created with Inkscape (http://www.inkscape.org/) -->
<svg xmlns="http://www.w3.org/2000/svg" viewBox="0 0 22 22">
 <g transform="translate(0,-1030.3622)">
  <path d="m 1.625 3 c -0.347 0.063 -0.625 0.397 -0.625 0.75 l 0 14.5 c 0.006 0.391 0.359 0.744 0.75 0.75 l 18.5 0 c 0.391 -0.01 0.744 -0.359 0.75 -0.75 l 0 -12.438 c -0.006 -0.391 -0.359 -0.806 -0.75 -0.813 l -7.25 0 l 0 -1.25 c -0.006 -0.391 -0.359 -0.744 -0.75 -0.75 l -10.625 0 z m 7.875 5 a 3 2.8 0 0 1 0.219 0 a 3 2.8 0 0 1 2.344 1.063 a 2.143 2 0 0 1 1.094 -0.25 a 2.143 2 0 0 1 2.125 2 a 2.143 2 0 0 1 -0.438 1.188 l 0.438 0 l 0 0.031 a 2.143 2 0 0 1 1.719 1.969 a 2.143 2 0 0 1 -1.719 1.969 l 0 0.031 l -8 0 l -0.344 0 l -0.219 0 l 0 -0.031 a 2.143 2 0 0 1 -1.719 -1.969 a 2.143 2 0 0 1 1.719 -1.969 l 0 -0.031 l 0.281 0 a 3 2.8 0 0 1 -0.281 -1.188 a 3 2.8 0 0 1 2.781 -2.813 z" transform="translate(0,1030.3622)" style="visibility:visible;fill:#bdbdbd;fill-opacity:1;stroke:none;display:inline;color:#000;fill-rule:nonzero"/>
 </g>
</svg>
